X:175
T:Plus joliement
C:Manuscript de Montpellier (XIIIe siècle)
R:Motet
M:3/4
L:1/8
Q:1/4=120
K:G 
V:1
GGG2 (3G=FE | ^F4G2 | ABA2BA | G3- G2z | 
C2E2GA | B4G2 | E=FD2 (3DCB, | C3- C2z | 
GGG2GA | BGE2 (3EDC | DDD2E=F | G3- G2z | 
^F4G2 | A2G2=F2 | G3- G2z | G2A2 (3G=FE | 
^F4G2 | AGG2 (3GFE | F3- F2z | GGG2GA | 
BGE2 (3EDC | DDD2E=F | G3- G2z | ^F2F2G2 | 
A2B2 (3cBA | G3- G2z | C2E2GA | BcB2G2 | 
E=FD2 (3DCB, | C3- C2z | DEG2GA | BGE2 (3EDC | 
DDD2ED | C3- C2z | D4D2 | E4D2 | 
C4G,2 | C2E2GA | BcB2G2 | E=FD2 (3DCB, | 
C4E2 | GAG2c2 | BGA2^F2 | G6 |]
V:2
C4C2 | D4D2 | E4F2 | G4F2 | 
G2A2GE | F4G2 | ECD2E2 | =F4E2 | 
D2C2G2 | ^FDE2F2 | GAG2 (3FED | C3- C2z | 
D4D2 | E4D2 | C4G,2 | C2E2 (3EDC | 
D4D2 | ECD2 (3DCB, | C4A,2 | D2C2G2 | 
FDE2F2 | G3- G2z | G2G2 (3GFE | F4 (3FED | 
E4=F2 | G3- G2z | G2A2 (3G=FE | ^F4G2 | 
ECD2E2 | =F3- =F2z | G2C2GE | ^FDE2F2 | 
GAG2=F2 | G3- G2z | ^F4G2 | ABA GF2 | 
G3- G2z | G2A2GE | F4G2 | ECD2E2 | 
=F4E2 | D2C2G2 | ^FDE2^C2 | D6 |]
V:3
=C,6 | B,,6 | A,,3- A,,2z | C,4D,2 | 
C,2A,,2C,2 | B,,4G,,2 | A,,4G,,2 | =F,,4A,,2 | 
G,,2C,4 | B,,2A,,4 | G,,3- G,,2z | C,6 | 
B,,6 | A,,6 | C,4D,2 | C,2A,,2C,2 | 
B,,4G,,2 | A,,2G,,4 | =F,,4A,,2 | G,,2C,4 | 
B,,2A,,4 | G,,3- G,,2z | C,6 | B,,6 | 
A,,3- A,,2z | C,4D,2 | C,2A,,2C,2 | B,,4G,,2 | 
A,,4G,,2 | =F,,4A,,2 | G,,2C,4 | B,,2A,,4 | 
G,,3- G,,2z | C,6 | B,,6 | A,,3- A,,2z | 
C,4D,2 | C,2A,,2C,2 | B,,4G,,2 | A,,2G,,4 | 
=F,,4A,,2 | G,,2C,4 | B,,2A,,4 | G,,6 |]





